www/assets/icons/extension.svg

<svg width="24" height="24" viewBox="0 0 24 24" xmlns="http://www.w3.org/2000/svg" fill='currentColor'><path d="M20 11.5H18.5V7.5C18.5 6.4 17.6 5.5 16.5 5.5H12.5V4C12.5 2.62 11.38 1.5 10 1.5C8.62 1.5 7.5 2.62 7.5 4V5.5H3.5C2.4 5.5 1.51 6.4 1.51 7.5V11.3H3C4.49 11.3 5.7 12.51 5.7 14C5.7 15.49 4.49 16.7 3 16.7H1.5V20.5C1.5 21.6 2.4 22.5 3.5 22.5H7.3V21C7.3 19.51 8.51 18.3 10 18.3C11.49 18.3 12.7 19.51 12.7 21V22.5H16.5C17.6 22.5 18.5 21.6 18.5 20.5V16.5H20C21.38 16.5 22.5 15.38 22.5 14C22.5 12.62 21.38 11.5 20 11.5Z"/></svg>

<svg xmlns="http://www.w3.org/2000/svg" width="24" height="24" viewBox="0 0 24 24" fill='currentColor'><path d="M20 11.5h-1.5v-4c0-1.1-.9-2-2-2h-4V4a2.5 2.5 0 0 0-5 0v1.5h-4c-1.1 0-1.99.9-1.99 2v3.8H3c1.49 0 2.7 1.21 2.7 2.7S4.49 16.7 3 16.7H1.5v3.8c0 1.1.9 2 2 2h3.8V21c0-1.49 1.21-2.7 2.7-2.7s2.7 1.21 2.7 2.7v1.5h3.8c1.1 0 2-.9 2-2v-4H20a2.5 2.5 0 0 0 0-5"/></svg>
